!!!OTL: Shi xiu xie
!!!ARE: Asia, China,ÿAnhui, Wuhu
!! III, 587
!!!SCT: C1613
!!!YEM: Copyright 1995, estate of Helmut Schaffrath.
**kern
*ICvox
*Ivox
*M2/4
*k[f#c#]
*D:
{8b
16b
16a
8dd
8a
=1
8.b
16a
4b
=2
8.ee
16ff#
4dd
=3
16b
16b
16b
16dd
16b
16a
8f#
=4
4a
16b
16a
16b
16dd
=5
2a}
=6
{8a
16a
16b
4dd
=7
16b
16dd
16b
16a
4f#
=8
8f#
16e
16f#
8a
8d
=9
4e
16f#
16e
16f#
16a
=10
2e}
==
!!!AGN: Xiaodiao
!!!AMT: simple duple
!!!AIN: vox
!!!EED: Helmut Schaffrath
!!!EEV: 1.0
*-
